packages/kaspersky-hexa-ui-icons/src/iconsSVGs/16/Hob.svg

<svg width="16" height="16" viewBox="0 0 16 16" fill="none" xmlns="http://www.w3.org/2000/svg">
<path fill-rule="evenodd" clip-rule="evenodd" d="M6 9C7.65685 9 9 7.65685 9 6C9 4.34315 7.65685 3 6 3C4.34315 3 3 4.34315 3 6C3 7.65685 4.34315 9 6 9ZM6 7.7C6.93888 7.7 7.7 6.93888 7.7 6C7.7 5.06112 6.93888 4.3 6 4.3C5.06112 4.3 4.3 5.06112 4.3 6C4.3 6.93888 5.06112 7.7 6 7.7Z" fill="black"/>
<path fill-rule="evenodd" clip-rule="evenodd" d="M13 10.5C13 11.8807 11.8807 13 10.5 13C9.11929 13 8 11.8807 8 10.5C8 9.11929 9.11929 8 10.5 8C11.8807 8 13 9.11929 13 10.5ZM11.7 10.5C11.7 11.1627 11.1627 11.7 10.5 11.7C9.83726 11.7 9.3 11.1627 9.3 10.5C9.3 9.83726 9.83726 9.3 10.5 9.3C11.1627 9.3 11.7 9.83726 11.7 10.5Z" fill="black"/>
<path d="M4.66668 12C4.66668 12.3682 4.3682 12.6667 4.00001 12.6667C3.63182 12.6667 3.33334 12.3682 3.33334 12C3.33334 11.6318 3.63182 11.3333 4.00001 11.3333C4.3682 11.3333 4.66668 11.6318 4.66668 12Z" fill="black"/>
<path d="M6.00001 12.6667C6.3682 12.6667 6.66668 12.3682 6.66668 12C6.66668 11.6318 6.3682 11.3333 6.00001 11.3333C5.63182 11.3333 5.33334 11.6318 5.33334 12C5.33334 12.3682 5.63182 12.6667 6.00001 12.6667Z" fill="black"/>
<path fill-rule="evenodd" clip-rule="evenodd" d="M3 1C1.89543 1 1 1.89543 1 3V13C1 14.1046 1.89543 15 3 15H13C14.1046 15 15 14.1046 15 13V3C15 1.89543 14.1046 1 13 1H3ZM13 2.3H3C2.6134 2.3 2.3 2.6134 2.3 3V13C2.3 13.3866 2.6134 13.7 3 13.7H13C13.3866 13.7 13.7 13.3866 13.7 13V3C13.7 2.6134 13.3866 2.3 13 2.3Z" fill="black"/>
</svg>

<svg xmlns="http://www.w3.org/2000/svg" width="16" height="16" fill="none" viewBox="0 0 16 16"><path fill="#000" fill-rule="evenodd" d="M3 1c-1.1046 0-2 .8954-2 2v10c0 1.1046.8954 2 2 2h10c1.1046 0 2-.8954 2-2V3c0-1.1046-.8954-2-2-2zm10 1.3H3a.7.7 0 0 0-.7.7v10a.7.7 0 0 0 .7.7h10a.7.7 0 0 0 .7-.7V3a.7.7 0 0 0-.7-.7M6 9c1.6569 0 3-1.3431 3-3S7.6569 3 6 3 3 4.3431 3 6s1.3431 3 3 3m0-1.3c.9389 0 1.7-.7611 1.7-1.7S6.9389 4.3 6 4.3 4.3 5.0611 4.3 6 5.0611 7.7 6 7.7m7 2.8c0 1.3807-1.1193 2.5-2.5 2.5S8 11.8807 8 10.5 9.1193 8 10.5 8 13 9.1193 13 10.5m-1.3 0c0 .6627-.5373 1.2-1.2 1.2s-1.2-.5373-1.2-1.2.5373-1.2 1.2-1.2 1.2.5373 1.2 1.2M4 12.6667a.6667.6667 0 1 0 0-1.3334.6667.6667 0 0 0 0 1.3334M6.6667 12a.6667.6667 0 1 1-1.3334 0 .6667.6667 0 0 1 1.3334 0"/></svg>
